X: 2
T: Andy McGann's
R: reel
M: 4/4
L: 1/8
K: Cmaj
|:eccB cGEG |FEDC B,DGF |EGcE FAdc |1Bggg agfd :|2 Bdgf ecdB||:c2gc acgc |c2gc BcdB|1c2gc acgc |BGGG BcdB:|2cg~g2 eg~g2 |ag^fa g2g=f|


Tune 3278	Setting 3278

